svg/600/outlined/swap_horiz-fill.svg

<svg xmlns="http://www.w3.org/2000/svg" width="48" height="48" viewBox="0 -960 960 960"><path d="M272.435-145.869 65.869-352.435l206.566-206.566 55.566 55.566-110.826 111.391H511.13v79.784H217.175l110.826 110.825-55.566 55.566Zm415.13-255.696-55.566-55.565L743.39-567.956H449.435v-79.784H743.39L631.999-759.13l55.566-55.566L894.696-608.13 687.565-401.565Z"/></svg>

<svg xmlns="http://www.w3.org/2000/svg" width="48" height="48" viewBox="0 -960 960 960"><path d="M272.43-145.87 65.87-352.43 272.43-559 328-503.43 217.18-392.04h293.95v79.78H217.18L328-201.43l-55.57 55.56Zm415.14-255.69L632-457.13l111.39-110.83H449.43v-79.78h293.96L632-759.13l55.57-55.57L894.7-608.13 687.57-401.56Z"/></svg>
